X:69
T:Cabin in Caroline
C:John Baldry solo
A:Bluegrass and Old-Time Mandolin
N:Transcribed by Mike Stangeland
R:bluegrass
L:1/8
Q:1/4=224
M:4/4
K:G
D ED | "G"GF GA BA Bc | d2 dd dd BB | "C"cd cB AG FE | "G"D2 DD DD ED | 
|[BG][BG] z[BG] [B2G2] [B2G2] | AA GG FF GG | "D7"A2 AA AB AG | FD ED FD ED | 
|"G"GF GA BA Bc | d2 dd dd BB | "C"cd cB AG FE | "G"D2 DD DD ED |
 [BG][BG] z[BG] [B2G2] [B2G2] | "D7"BA GB AG FA | "G"G2 GD ED ^A,B, | G,2 A,^A, B,D ED | G8 | 

